src/assets/images/IconFlipCamera.svg

<svg width="38" height="32" viewBox="0 0 50 45" fill="none" xmlns="http://www.w3.org/2000/svg">
<path d="M3.84615 14.4175V33.3786C3.84615 34.4272 4.63287 35.2136 5.68182 35.2136H6.73077H9.17832H11.2762C14.7727 38.8835 19.6678 41.2427 25 41.2427C31.8182 41.2427 37.5874 37.6602 40.9091 32.4175C41.4336 32.5922 42.1329 32.5922 42.6573 32.5049C41.6958 34.165 40.5594 35.6505 39.2483 36.9612V37.0485H39.1608C35.4021 40.7184 30.3322 42.8155 25 42.8155C19.5804 42.8155 14.5979 40.7184 10.8392 37.0485H5.68182C3.58392 37.0485 1.92308 35.4757 1.92308 33.3786V4.98058H0L2.88462 0L5.76923 4.98058H3.84615V14.4175ZM17.0455 7.7767H16.7832L17.3951 5.24272C17.4825 4.71845 17.8322 4.28155 18.3566 4.28155H31.6434C32.1678 4.28155 32.6923 4.63107 32.7797 5.15534L33.479 8.82524C33.479 9.08738 33.5664 9.26214 33.7413 9.43689C33.9161 9.52427 34.1783 9.61165 34.3531 9.61165H44.6678C45.542 9.61165 46.1538 10.3981 46.1538 11.2718V40.0194H44.2308L47.1154 45L50 40.0194H48.0769V11.2718C48.0769 9.43689 46.5909 7.7767 44.6678 7.7767H35.1399L34.6154 4.8932C34.528 4.28155 34.2657 3.75728 33.8287 3.32039C33.1294 2.70874 32.6049 2.35922 31.6434 2.35922H18.3566C16.958 2.35922 15.8217 3.49515 15.5594 4.8932L14.8601 7.7767H8.39161C7.86713 7.7767 7.43007 8.21359 7.43007 8.73786C7.43007 9.26214 7.86713 9.61165 8.39161 9.61165H16.1713C16.6958 9.61165 17.0455 9.26214 17.0455 8.73786V7.7767ZM25 13.2816C23.6014 13.2816 22.6399 13.6311 21.4161 14.068C20.1923 14.5049 19.4056 15.2039 18.4441 15.9903C17.3951 17.0388 16.3462 19.0485 16.1713 20.534C15.1224 26.8252 19.5804 31.9806 25.9615 31.3689C27.7098 31.1942 28.6713 30.7573 30.0699 29.9709C31.2937 29.1845 32.8671 27.3495 33.3042 26.0388C33.3916 25.8641 33.479 25.6893 33.6538 25.5146C34.2657 23.2427 34.3531 21.6699 33.6538 19.3107C33.5664 19.3107 33.5664 19.2233 33.479 19.2233C33.3916 19.1359 33.3916 18.9612 33.3042 18.8738C32.6923 16.6893 30.507 14.6796 28.3217 14.068C27.2727 13.5437 26.1364 13.2816 25 13.2816ZM25 11.4466C26.3986 11.4466 27.7972 11.7961 29.1084 12.3204C31.6434 13.1068 34.0035 15.466 34.965 17.9126C35.1399 18 35.2273 18.1748 35.3147 18.3495C36.2762 21.4078 36.1888 23.5049 35.3147 26.5631C35.2273 26.6505 35.1399 26.7379 35.1399 26.8252C35.0524 26.9126 34.965 27 34.965 27C34.4406 28.1359 33.6538 29.1845 32.7797 30.0583C31.9056 31.1068 30.6818 31.8058 29.458 32.4175C26.8357 33.466 23.3392 33.6408 20.7168 32.5049C18.0944 31.3689 16.0839 29.2718 14.9476 26.6505C13.986 24.3786 13.8112 20.4466 14.9476 18.2621C15.2098 17.5631 15.5594 16.8641 15.9965 16.165C16.3462 15.6408 16.7832 14.9417 17.3077 14.5922C18.3566 13.7184 19.493 12.7573 20.8916 12.3204C22.2028 11.7961 23.514 11.4466 25 11.4466Z" fill="white"/>
</svg>

<svg width="38" height="32" viewBox="0 0 50 45" fill="none" xmlns="http://www.w3.org/2000/svg"><path d="M3.846 14.418v18.96c0 1.05.787 1.836 1.836 1.836H11.276c3.497 3.67 8.392 6.029 13.724 6.029 6.818 0 12.587-3.583 15.91-8.826.524.175 1.223.175 1.747.088a21.507 21.507 0 0 1-3.409 4.456v.087h-.087A20.268 20.268 0 0 1 25 42.816c-5.42 0-10.402-2.097-14.16-5.767H5.681c-2.098 0-3.759-1.572-3.759-3.67V4.982H0L2.885 0l2.884 4.98H3.846v9.438zm13.2-6.641h-.263l.612-2.534c.088-.525.437-.961.962-.961h13.286c.525 0 1.05.35 1.137.873l.699 3.67c0 .262.087.437.262.612.175.087.437.175.612.175h10.315c.874 0 1.486.786 1.486 1.66v28.747H44.23L47.115 45 50 40.02h-1.923V11.271c0-1.835-1.486-3.495-3.41-3.495H35.14l-.525-2.884a2.71 2.71 0 0 0-.786-1.573c-.7-.611-1.224-.96-2.186-.96H18.357c-1.399 0-2.535 1.135-2.798 2.533l-.699 2.884H8.392a.97.97 0 0 0-.962.96c0 .525.437.875.962.875h7.78c.524 0 .873-.35.873-.874v-.961zM25 13.282c-1.399 0-2.36.35-3.584.786-1.224.437-2.01 1.136-2.972 1.922-1.049 1.049-2.098 3.059-2.273 4.544-1.049 6.291 3.41 11.447 9.79 10.835 1.749-.175 2.71-.612 4.109-1.398 1.224-.787 2.797-2.622 3.234-3.932.088-.175.175-.35.35-.524.612-2.272.7-3.845 0-6.204-.088 0-.088-.088-.175-.088-.087-.087-.087-.262-.175-.35-.612-2.184-2.797-4.193-4.982-4.805A7.423 7.423 0 0 0 25 13.282zm0-1.835c1.399 0 2.797.35 4.108.873 2.535.787 4.896 3.146 5.857 5.593.175.087.262.262.35.436.961 3.059.874 5.156 0 8.214-.088.088-.175.175-.175.262l-.175.175c-.524 1.136-1.311 2.184-2.185 3.058-.874 1.049-2.098 1.748-3.322 2.36-2.622 1.048-6.119 1.223-8.741.087-2.623-1.136-4.633-3.233-5.77-5.855-.961-2.271-1.136-6.203 0-8.388.263-.699.612-1.398 1.05-2.097.35-.524.786-1.223 1.31-1.573 1.05-.874 2.186-1.835 3.585-2.272 1.31-.524 2.622-.873 4.108-.873z" fill="#fff"/></svg>
